X: 14067
T: NOLLETT'S REEL
C: Bob McQuillen Feb.'09
B: Bob's Note Book 14 #67
%R: reel
%D:2009
Z: 2020 John Chambers <jc:trillian.mit.edu>
M: C
L: 1/8
K: D
de \
| f2fa fAdf | e2fd edBA | BdAd BdAB | ABdf edBd |
| f2fa fAdf | efed B4   | BABc dedB | ABde d2  :|
|: DE \
| FEFA BAdB | A2df edBA | dBdf edBd | fafd edBA |
| FEFA B2dB | ABdf e2de | fafd efdB | AFEF D2  :|
%%begintext align
%% William Nollett, from Keene, is another one of the
%% regulars at the Monday Night in Nelson dance, and
%% since he is a nice man, I thought he should have a tune.
%% So here it is, Bill, and I hope you like it --
%%endtext

%%sep 1 1 500

%%sep 1 1 500

